X: 10113
P: Country dance.
M: 2/4
L: 1/8
K: Bb
z |\
~d>e f2 | ~e>f g2 | f2 Ta2 | b3 :|\
|: e |\
~d2 d>e | f2 fd | (g>e) e>c | (cA) (AF) |\
d2 (d>e) | f3 d | (g>e) (cA) | B3 :|


